public/illustrations/_music.svg

<svg width="285" height="246" viewBox="0 0 285 246" fill="none" xmlns="http://www.w3.org/2000/svg">
<path d="M44.674 183.84C46.0191 176.492 46.9112 169.512 48.3129 162.602C53.4525 137.428 58.9036 112.254 64.0998 87.1938C64.2839 85.9903 64.3971 84.6593 64.3829 83.3992C64.2838 79.1516 67.3138 76.6598 71.4906 77.7075C72.6375 78.0756 73.7701 78.4437 74.6621 78.9535C98.8593 89.6715 123 100.574 147.211 111.292C149.123 112.226 151.275 112.084 153.115 112.58C156.287 113.5 158.963 115.638 161.894 117.323C161.837 118.47 161.781 119.291 161.596 120.169C156.329 154.461 151.388 188.753 145.625 222.989C144.535 229.587 140.967 235.689 135.615 239.837C130.263 243.986 123.495 246.011 116.784 245.289C102.526 243.802 92.6153 230.578 94.5975 215.754C96.5797 200.93 110.116 190.381 124.444 192.619C127.672 193.043 130.66 194.219 133.265 196.229C134.921 197.291 136.507 198.225 138.348 199.047L144.153 161.455C118.54 149.237 93.1251 137.06 67.4554 124.714C67.0307 126.371 66.6483 127.503 66.351 128.778C62.8821 147.226 59.3991 165.675 56.1143 184.194C54.9533 190.976 54.5002 197.886 53.9197 204.852C53.0418 215.626 47.973 223.767 38.3168 228.525C34.409 230.521 29.9208 231.371 25.4749 231.087C21.0999 230.932 16.7249 229.502 12.9162 227.321C9.03673 225.013 5.97847 221.799 3.72724 218.019C1.49017 214.239 0.187591 209.807 0.0318452 205.446C-0.194694 200.958 0.796275 196.64 2.72185 192.633C4.66159 188.626 7.47926 185.129 11.1322 182.637C14.7285 180.017 18.9477 178.332 23.2519 177.738C27.6836 177.072 32.1153 177.667 36.3629 179.168C39.2796 180.541 42.1397 182.099 44.9431 183.854H44.6317L44.674 183.84ZM74.4497 90.9741L69.296 113.614L145.668 150.044L149.604 124.374L74.393 90.8466L74.4639 90.9741H74.4497ZM33.3329 218.685C41.9838 214.763 44.3767 204.172 40.653 196.852C35.8957 187.521 26.013 187.139 19.2734 190.424C15.3656 192.42 12.4772 195.79 11.1039 199.981C9.74462 204.172 10.0844 208.604 11.9533 212.582C15.7479 220.029 25.4466 222.875 33.2764 218.883L33.3329 218.699V218.685ZM114.165 205.177C110.385 207.103 107.496 210.487 106.066 214.55C104.636 218.614 104.99 223.045 106.916 226.826C107.751 228.468 108.77 229.856 110.172 231.045C111.574 232.234 113.103 233.055 114.873 233.735C116.586 234.287 118.427 234.471 120.14 234.401C121.98 234.259 123.623 233.735 125.251 232.914C129.031 230.988 131.92 227.604 133.35 223.541C134.78 219.477 134.426 215.046 132.628 211.195C131.792 209.552 130.702 208.037 129.428 206.791C128.026 205.602 126.44 204.653 124.727 204.101C123.014 203.549 121.173 203.365 119.347 203.507C117.52 203.648 115.736 204.229 114.108 205.064L114.179 205.191L114.165 205.177Z" fill="#102185"/>
<path d="M226.103 188.47C226.103 187.479 226.244 186.63 226.244 185.638C226.669 154.348 227.235 123.199 227.66 91.9086C227.66 87.0946 229.217 85.1125 233.04 84.263C237.571 83.4135 240.12 84.9709 241.394 89.5017C244.367 99.4127 250.314 106.634 260.508 109.324C273.817 112.863 280.472 122.066 282.879 134.951C283.87 140.331 284.012 145.853 284.578 151.375V153.357C284.153 156.755 282.171 158.737 279.198 158.879C276.224 159.02 274.1 157.18 273.676 153.64C273.109 148.968 273.109 144.154 272.26 139.481C271.693 136.083 270.702 132.827 269.57 129.57C268.862 127.588 267.588 125.748 266.03 124.332C264.473 122.916 262.632 121.783 260.508 121.217C259.092 120.792 257.535 120.226 256.119 119.801C250.597 118.102 245.5 115.129 241.394 110.881C240.544 110.032 239.695 109.324 238.562 108.191C238.562 109.607 238.279 110.598 238.279 111.447C237.996 133.393 237.713 155.339 237.288 177.426C237.288 186.346 237.146 195.125 236.438 204.045C236.014 209.142 235.023 214.239 233.182 219.053C231.2 224.433 227.377 228.964 222.421 231.795C217.466 234.769 211.802 235.901 206.139 235.052C200.475 234.061 195.237 231.229 191.414 226.84C187.591 222.451 185.467 216.929 185.326 211.124C184.901 198.523 193.538 186.063 207.696 184.506C213.077 183.939 218.74 184.506 223.554 187.762C224.12 188.045 224.687 188.47 225.253 188.753C225.395 188.753 225.536 188.612 225.961 188.612L226.103 188.47ZM210.103 223.867C212.935 223.867 215.767 223.159 218.032 221.46C220.439 219.902 222.138 217.495 223.129 214.805C225.253 209.142 224.687 203.62 220.439 199.089C218.174 196.682 215.342 194.7 212.085 194.842C209.82 194.842 207.555 195.266 205.572 196.257C203.449 197.249 201.75 198.664 200.334 200.363C196.511 205.177 195.661 210.558 198.21 216.221C199.201 218.628 200.759 220.61 202.882 221.884C205.006 223.3 207.555 223.867 210.103 223.725V223.867Z" fill="#102185"/>
<path d="M187.592 54.5301C189.291 45.7518 190.848 36.9735 192.406 28.3368C193.68 21.6822 194.813 14.8861 196.228 8.23156C196.653 6.39094 197.361 4.55031 198.494 2.99287C199.202 1.71859 200.476 0.727545 201.892 0.302788C203.308 -0.121969 204.865 -0.122004 206.281 0.444339C215.484 3.41764 224.687 6.24932 233.749 9.08104C239.271 10.7801 242.81 14.1781 243.802 19.9832C244.793 24.9387 245.925 29.7526 246.917 34.7081C247.058 35.8408 247.2 36.9734 247.058 38.1061C247.058 39.3804 246.633 40.5131 245.784 41.5042C245.076 42.4953 243.943 43.0617 242.669 43.4865C241.536 43.7696 240.262 43.4864 239.129 43.0616C237.997 42.4953 237.147 41.6458 236.581 40.5131C236.014 39.3804 235.731 38.1062 235.59 36.8319C234.74 32.1596 234.032 27.4873 233.041 22.9565C232.899 22.3902 232.616 21.8238 232.191 21.2575C231.767 20.8327 231.342 20.408 230.776 20.1248C222.847 17.4347 214.918 15.0277 206.706 12.3376C205.715 17.4347 204.865 21.8238 204.016 26.3545C201.326 40.5131 198.494 54.5301 195.804 68.6887C195.379 70.9541 194.954 73.2195 194.529 75.4848C193.822 80.1572 191.556 84.5463 188.3 88.086C185.043 91.484 180.795 93.891 175.981 94.8821C163.947 97.4306 151.77 89.3602 149.222 76.9007C148.231 72.9363 148.514 68.8303 149.788 64.8659C151.062 61.0431 153.469 57.5034 156.584 54.9549C163.097 49.1499 170.743 47.4508 179.096 50.9905C181.645 52.1232 184.194 53.1142 187.45 54.3885L187.592 54.5301ZM183.486 72.3699C183.486 65.9986 178.672 60.3352 173.15 60.1936C165.787 60.052 159.982 65.4322 159.982 72.3699C159.982 73.9274 160.265 75.4848 160.832 76.9007C161.398 78.3165 162.248 79.5908 163.38 80.7235C164.513 81.8562 165.787 82.7057 167.203 83.272C168.619 83.8384 170.176 84.1215 171.734 84.1215C173.291 84.1215 174.849 83.8384 176.265 83.272C177.681 82.7057 178.955 81.8562 180.087 80.7235C181.22 79.5908 182.07 78.3165 182.636 76.9007C183.202 75.4848 183.486 73.9274 183.486 72.3699Z" fill="#102185"/>
</svg>

<svg xmlns="http://www.w3.org/2000/svg" width="285" height="246" fill="none" viewBox="0 0 285 246"><path fill="#102185" d="M44.674 183.84c1.345-7.348 2.237-14.328 3.639-21.238 5.14-25.174 10.59-50.348 15.787-75.408.184-1.204.297-2.535.283-3.795-.1-4.247 2.93-6.74 7.108-5.692 1.147.369 2.28.737 3.171 1.247 24.197 10.718 48.338 21.62 72.549 32.338 1.912.934 4.064.792 5.904 1.288 3.172.92 5.848 3.058 8.779 4.743-.057 1.147-.113 1.968-.298 2.846-5.267 34.292-10.208 68.584-15.971 102.82-1.09 6.598-4.658 12.7-10.01 16.848-5.352 4.149-12.12 6.174-18.831 5.452-14.258-1.487-24.169-14.711-22.187-29.535 1.983-14.824 15.519-25.373 29.847-23.135 3.228.424 6.216 1.6 8.821 3.61 1.656 1.062 3.242 1.996 5.083 2.818l5.805-37.592a26509 26509 0 0 1-76.698-36.741c-.424 1.657-.807 2.789-1.104 4.064-3.469 18.448-6.952 36.897-10.237 55.416-1.16 6.782-1.614 13.692-2.194 20.658-.878 10.774-5.947 18.915-15.603 23.673-3.908 1.996-8.396 2.846-12.842 2.562-4.375-.155-8.75-1.585-12.559-3.766-3.88-2.308-6.938-5.522-9.189-9.302-2.237-3.78-3.54-8.212-3.695-12.573-.227-4.488.764-8.806 2.69-12.813 1.94-4.007 4.757-7.504 8.41-9.996a27 27 0 0 1 12.12-4.899c4.432-.666 8.863-.071 13.11 1.43a82 82 0 0 1 8.581 4.686h-.311zM74.45 90.974l-5.154 22.64 76.372 36.43 3.936-25.67-75.211-33.527.07.127zM33.333 218.685c8.65-3.922 11.044-14.513 7.32-21.833-4.757-9.331-14.64-9.713-21.38-6.428-3.907 1.996-6.796 5.366-8.17 9.557-1.358 4.191-1.019 8.623.85 12.601 3.795 7.447 13.494 10.293 21.323 6.301l.057-.184zm80.832-13.508c-3.78 1.926-6.669 5.31-8.099 9.373-1.43 4.064-1.076 8.495.85 12.276.835 1.642 1.854 3.03 3.256 4.219s2.931 2.01 4.701 2.69c1.713.552 3.554.736 5.267.666 1.84-.142 3.483-.666 5.111-1.487 3.78-1.926 6.669-5.31 8.099-9.373 1.43-4.064 1.076-8.495-.722-12.346-.836-1.643-1.926-3.158-3.2-4.404-1.402-1.189-2.988-2.138-4.701-2.69s-3.554-.736-5.38-.594c-1.827.141-3.611.722-5.239 1.557l.071.127zM226.103 188.47c0-.991.141-1.84.141-2.832.425-31.29.991-62.439 1.416-93.73 0-4.813 1.557-6.796 5.38-7.645 4.531-.85 7.08.708 8.354 5.239 2.973 9.91 8.92 17.132 19.114 19.822 13.309 3.539 19.964 12.742 22.371 25.627.991 5.38 1.133 10.902 1.699 16.424v1.982c-.425 3.398-2.407 5.38-5.38 5.522-2.974.141-5.098-1.699-5.522-5.239-.567-4.672-.567-9.486-1.416-14.159-.567-3.398-1.558-6.654-2.69-9.911-.708-1.982-1.982-3.822-3.54-5.238-1.557-1.416-3.398-2.549-5.522-3.115-1.416-.425-2.973-.991-4.389-1.416-5.522-1.699-10.619-4.672-14.725-8.92-.85-.849-1.699-1.557-2.832-2.69 0 1.416-.283 2.407-.283 3.256-.283 21.946-.566 43.892-.991 65.979 0 8.92-.142 17.699-.85 26.619-.424 5.097-1.415 10.194-3.256 15.008a24.4 24.4 0 0 1-10.761 12.742c-4.955 2.974-10.619 4.106-16.282 3.257-5.664-.991-10.902-3.823-14.725-8.212s-5.947-9.911-6.088-15.716c-.425-12.601 8.212-25.061 22.37-26.618 5.381-.567 11.044 0 15.858 3.256.566.283 1.133.708 1.699.991.142 0 .283-.141.708-.141zm-16 35.397c2.832 0 5.664-.708 7.929-2.407 2.407-1.558 4.106-3.965 5.097-6.655 2.124-5.663 1.558-11.185-2.69-15.716-2.265-2.407-5.097-4.389-8.354-4.247-2.265 0-4.53.424-6.513 1.415-2.123.992-3.822 2.407-5.238 4.106-3.823 4.814-4.673 10.195-2.124 15.858.991 2.407 2.549 4.389 4.672 5.663 2.124 1.416 4.673 1.983 7.221 1.841zM187.592 54.53c1.699-8.778 3.256-17.556 4.814-26.193 1.274-6.655 2.407-13.45 3.822-20.105.425-1.841 1.133-3.682 2.266-5.24.708-1.273 1.982-2.264 3.398-2.69 1.416-.424 2.973-.424 4.389.142 9.203 2.974 18.406 5.805 27.468 8.637 5.522 1.7 9.061 5.097 10.053 10.902.991 4.956 2.123 9.77 3.115 14.725.141 1.133.283 2.265.141 3.398q0 1.911-1.274 3.398c-.708.991-1.841 1.558-3.115 1.983-1.133.283-2.407 0-3.54-.425a5.56 5.56 0 0 1-2.548-2.549c-.567-1.133-.85-2.407-.991-3.681-.85-4.672-1.558-9.345-2.549-13.876q-.213-.849-.85-1.698c-.424-.425-.849-.85-1.415-1.133-7.929-2.69-15.858-5.097-24.07-7.787a2074 2074 0 0 0-2.69 14.017c-2.69 14.158-5.522 28.175-8.212 42.334l-1.275 6.796c-.707 4.672-2.973 9.061-6.229 12.601a23.6 23.6 0 0 1-12.319 6.796c-12.034 2.549-24.211-5.522-26.759-17.981-.991-3.965-.708-8.07.566-12.035 1.274-3.823 3.681-7.363 6.796-9.911 6.513-5.805 14.159-7.504 22.512-3.965 2.549 1.133 5.098 2.124 8.354 3.398zm-4.106 17.84c0-6.371-4.814-12.035-10.336-12.176-7.363-.142-13.168 5.238-13.168 12.176 0 1.557.283 3.115.85 4.53q.85 2.124 2.548 3.823 1.7 1.7 3.823 2.549c1.416.566 2.973.85 4.531.85s3.115-.284 4.531-.85q2.124-.85 3.822-2.549 1.7-1.698 2.549-3.822c.566-1.416.85-2.974.85-4.531"/></svg>
